src/assets/netflix_logo.svg

<svg xmlns="http://www.w3.org/2000/svg" width="1024" height="276.742" viewBox="0 0 1024 276.742"><path d="M140.803 258.904c-15.404 2.705-31.079 3.516-47.294 5.676l-49.458-144.856v151.073c-15.404 1.621-29.457 3.783-44.051 5.945v-276.742h41.08l56.212 157.021v-157.021h43.511v258.904zm85.131-157.558c16.757 0 42.431-.811 57.835-.811v43.24c-19.189 0-41.619 0-57.835.811v64.322c25.405-1.621 50.809-3.785 76.482-4.596v41.617l-119.724 9.461v-255.39h119.724v43.241h-76.482v58.105zm237.284-58.104h-44.862v198.908c-14.594 0-29.188 0-43.239.539v-199.447h-44.862v-43.242h132.965l-.002 43.242zm70.266 55.132h59.187v43.24h-59.187v98.104h-42.433v-239.718h120.808v43.241h-78.375v55.133zm148.641 103.507c24.594.539 49.456 2.434 73.51 3.783v42.701c-38.646-2.434-77.293-4.863-116.75-5.676v-242.689h43.24v201.881zm109.994 49.457c13.783.812 28.377 1.623 42.43 3.242v-254.58h-42.43v251.338zm231.881-251.338l-54.863 131.615 54.863 145.127c-16.217-2.162-32.432-5.135-48.648-7.838l-31.078-79.994-31.617 73.51c-15.678-2.705-30.812-3.516-46.484-5.678l55.672-126.75-50.269-129.992h46.482l28.377 72.699 30.27-72.699h47.295z" fill="#d81f26"/></svg>

<svg width="1024" height="277" viewBox="0 0 1024 277" fill="none" xmlns="http://www.w3.org/2000/svg">
  <g clip-path="url(#clip0_402_357)">
    <path
      d="M140.803 258.904C125.399 261.609 109.724 262.42 93.509 264.58L44.051 119.724V270.797C28.647 272.418 14.594 274.58 0 276.742V0H41.08L97.292 157.021V0H140.803V258.904ZM225.934 101.346C242.691 101.346 268.365 100.535 283.769 100.535V143.775C264.58 143.775 242.15 143.775 225.934 144.586V208.908C251.339 207.287 276.743 205.123 302.416 204.312V245.929L182.692 255.39V0H302.416V43.241H225.934V101.346V101.346ZM463.218 43.242H418.356V242.15C403.762 242.15 389.168 242.15 375.117 242.689V43.242H330.255V0H463.22L463.218 43.242V43.242ZM533.484 98.374H592.671V141.614H533.484V239.718H491.051V0H611.859V43.241H533.484V98.374V98.374ZM682.125 201.881C706.719 202.42 731.581 204.315 755.635 205.664V248.365C716.989 245.931 678.342 243.502 638.885 242.689V0H682.125V201.881ZM792.119 251.338C805.902 252.15 820.496 252.961 834.549 254.58V0H792.119V251.338V251.338ZM1024 0L969.137 131.615L1024 276.742C1007.78 274.58 991.568 271.607 975.352 268.904L944.274 188.91L912.657 262.42C896.979 259.715 881.845 258.904 866.173 256.742L921.845 129.992L871.576 0H918.058L946.435 72.699L976.705 0H1024V0Z"
      fill="#D81F26" />
  </g>
  <defs>
    <clipPath id="clip0_402_357">
      <rect width="1024" height="276.742" fill="white" />
    </clipPath>
  </defs>
</svg>
